src/main/resources/icons/SeleniumSharedIcons/icons/gutter/issue_dark.svg

<svg width="12" height="12" viewBox="0 0 12 12" fill="none" xmlns="http://www.w3.org/2000/svg"><rect id="frame" width="12" height="12" fill="none"/><path fill-rule="evenodd" clip-rule="evenodd" d="M1 2h10v7H1V2zm9 2H7v1h3V4zm0 2H7v1h3V6zM5 4H2v3h3V4z" fill="#C4C4C4"/></svg>

<svg width="12" height="12" viewBox="0 0 12 12" fill="none" xmlns="http://www.w3.org/2000/svg">
<path fill-rule="evenodd" clip-rule="evenodd" d="M1 2H11V9H1V2ZM10 4H7V5H10V4ZM10 6H7V7H10V6ZM5 4H2V7H5V4Z" fill="#C4C4C4"/>
</svg>
